icons/monitor-mac-altB.svg

<svg width="24" height="24" viewBox="0 0 24 24" fill="none" xmlns="http://www.w3.org/2000/svg">
<path fill-rule="evenodd" clip-rule="evenodd" d="M8.33801 15.75H15.6622L16.1501 19.6533V19.7C16.1501 20.0798 16.0108 20.4487 15.7763 20.7301C15.5385 21.0155 15.1653 21.25 14.7001 21.25H9.3001C8.85956 21.25 8.46743 21.0379 8.20973 20.7568C7.95828 20.4825 7.76064 20.0546 7.86034 19.5714L8.33801 15.75ZM9.66218 17.25L9.34968 19.75H14.6366C14.6388 19.7457 14.6409 19.7408 14.6428 19.7356C14.6446 19.7307 14.646 19.7262 14.647 19.722L14.338 17.25H9.66218Z" fill="black"/>
<path d="M21 5.2V14.7C21 15.7 20.2 16.4 19.3 16.4H4.7C3.7 16.4 3 15.6 3 14.7V5.2C3 4.3 3.8 3.5 4.7 3.5H19.2C20.2 3.5 21 4.2 21 5.2Z" fill="black"/>
<path fill-rule="evenodd" clip-rule="evenodd" d="M4.7 4.25C4.21421 4.25 3.75 4.71421 3.75 5.2V14.7C3.75 15.2149 4.14277 15.65 4.7 15.65H19.3C19.8149 15.65 20.25 15.2572 20.25 14.7V5.2C20.25 4.66961 19.8434 4.25 19.2 4.25H4.7ZM2.25 5.2C2.25 3.88579 3.38579 2.75 4.7 2.75H19.2C20.5566 2.75 21.75 3.73039 21.75 5.2V14.7C21.75 16.1428 20.5851 17.15 19.3 17.15H4.7C3.25723 17.15 2.25 15.9851 2.25 14.7V5.2Z" fill="black"/>
</svg>

<svg xmlns="http://www.w3.org/2000/svg" fill="none" viewBox="0 0 24 24">
  <path fill="#000" fill-rule="evenodd" d="M8.338 15.75h7.324l.488 3.903v.047c0 .38-.14.749-.374 1.03a1.4 1.4 0 0 1-1.076.52H9.3a1.5 1.5 0 0 1-1.09-.493c-.252-.274-.45-.702-.35-1.186l.478-3.821Zm1.324 1.5-.312 2.5h5.287a.13.13 0 0 0 .01-.028l-.309-2.472H9.662Z" clip-rule="evenodd"/>
  <path fill="#000" d="M21 5.2v9.5c0 1-.8 1.7-1.7 1.7H4.7c-1 0-1.7-.8-1.7-1.7V5.2c0-.9.8-1.7 1.7-1.7h14.5c1 0 1.8.7 1.8 1.7Z"/>
  <path fill="#000" fill-rule="evenodd" d="M4.7 4.25c-.486 0-.95.464-.95.95v9.5c0 .515.393.95.95.95h14.6c.515 0 .95-.393.95-.95V5.2c0-.53-.407-.95-1.05-.95H4.7Zm-2.45.95c0-1.314 1.136-2.45 2.45-2.45h14.5c1.357 0 2.55.98 2.55 2.45v9.5c0 1.443-1.165 2.45-2.45 2.45H4.7c-1.443 0-2.45-1.165-2.45-2.45V5.2Z" clip-rule="evenodd"/>
</svg>
